X: 90
T: Kto się w opiekę poda Panu swemu
C: Mikołaj Gomółka
%%abc-version 2.0
%%abcx-abcm2ps-target-version 5.9.1 (29 Sep 2008)
%%abc-creator hum2abc beta
%%abcx-conversion-date 2021/10/04 07:59:10
%%abc-edited-by Anna Matuszewska
%%abcx-initial-encoding-date 2020-02-16
%%humdrum-veritas 2349274537
%%humdrum-veritas-data 4158650967
%%linebreak <none>
%%barnumbers 0
L: 1/4
M: C|
N: Derived from pl-wn--sd-xvi-qu-273--091_gomolka-mikolaj--kto-sie-w-opieke-poda-panu-swemu.krn
%%staves [1 2 3 4]
V: 1
V: 2 clef=alto
V: 3 clef=tenor
V: 4 clef=bass
K: F
[V:1] G4G2G2 | 
[V:2] C2G,2>A,2B,C | 
[V:3] G,4G,2D,2 | 
[V:4] C,4G,,2G,,3 [|] 
[V:1] D2>E2FEFG | 
[V:2] D2D2D3E | 
[V:3] B,2B,2A,2B,2 | 
[V:4] A,,B,,C,D,2G,2 [|] 
[V:1] A2B2AGGF/E/ | 
[V:2] F2F2E4 | 
[V:3] C2D2C3B, | 
[V:4] F,2B,,2C,4 [|] 
[V:1] FG2FG4 | 
[V:2] D2>C2=B,4 | 
[V:3] A,G,A,2G,4 | 
[V:4] D,4G,,4 | 
[V:1] B4B2B2 [I:setbarnb 6]| 
[V:2] G4G2F2 | 
[V:3] D2_E2>D2CB, | 
[V:4] G,2_E,F,G,A,B,2 [|] 
[V:1] c4d2B2 | 
[V:2] F4F2GF | 
[V:3] A,B,A,2B,4 | 
[V:4] F,2>E,2D,2E,2 [|] 
[V:1] e2>d2c2B4 | 
[V:2] EDCB,F2DE | 
[V:3] C2G,2A,2B,2 | 
[V:4] C,2E,2F,2G,2 [|] 
[V:1] A2B2A2 | 
[V:2] F4F2F2 | 
[V:3] C4D2D2 | 
[V:4] F,4B,,2D,2 [|] 
[V:1] F2G2>A2B2 | 
[V:2] CD_E2D2G2 | 
[V:3] A,2C2B,3C | 
[V:4] F,2C,2G,2G,,A,, [|] 
[V:1] F2>G2A2D4 | 
[V:2] D2>E2FEDC | 
[V:3] DCA,B,C2F,4 | 
[V:4] B,,C,D,2A,,2B,,4 [|] 
[V:1] B2A4 | 
[V:2] B,2D2>C2A,2 | 
[V:3] G,2A,2F,2 | 
[V:4] G,,2D,4 | 
[V:1] G8 | 
[V:2] =B,8 | 
[V:3] G,8 | 
[V:4] G,,8 | 


